X:1
T:Grandfathers Clock
T:Grandfather's Clock
%%score 1 { ( 2 3 ) | 4 }
L:1/8
Q:1/4=70
M:2/4
K:Ab
V:1 bass nm="Euphonium" snm="Euph."
V:2 treble nm="Piano" snm="Pno."
V:3 treble 
V:4 bass 
V:1
 z2 | z4 | z4 | z4 | z4 | z4 | z4 | z4 | z2 E,2 |:"^Theme" A,2 G,A, | B,2 A,B, | C2 DC | F,2 B,B, | %13
 A,2 A,A, | G,2 F,G, | A,4- |1 A,2- E,2 :|2 A,2 CD || E2 CB, | A,2 G,A, | B,A, G,F, | E,2 CD | %22
 E2 CB, | A,2 G,A, | B,4- | B,2 E,E, | A,2 G,A, | B,2 A,B, | CC DC | F,2 B,B, | A,2 A,A, | %31
 G,2 F,G, | A,4- | A,2 z2 || z4 | z4 | z4 | z4 | z4 | z4 | z4 | z2 E,2 ||"^Variation 1" A,E, G,A, | %43
 B,E, A,B, | CA, DC | F,D, CB, | A,E, B,A, | G,E, CB, | A,E, C,E, | A,2 E,E, | A,E, G,A, | %51
 B,E, A,B, | CA, DC | F,D, CB, | A,E, B,A, | G,E, CB, | A,E, CE, | A,2 CD | E2 CB, | A,E, G,A, | %60
 B,F, D,F, | E,C, CD | E2 CB, | A,F, G,A, | B,E, DC | B,2 E,E, | A,E, G,A, | B,E, A,B, | CA, DC | %69
 F,D, CB, | A,E, B,A, | G,E, F,G, | A,E, CE, | A,2 z2 ||[K:Bb] z4 | z4 | z4 | z4 | z4 | z4 | z4 | %81
 z2 F,2 |:"^Variation 2" B,/F,/D,/F,/ A,/F,/B,/F,/ | C/F,/E,/F,/ B,/F,/C/F,/ | %84
 D/F,/D,/F,/ E/F,/D/F,/ | G,/E,/C,/E,/ C/D/C/=B,/ | B,/F,/D,/F,/ B,/F,/B,/F,/ | %87
 B,/F,/E,/F,/ G,/F,/D/C/ | B,/F,/D,/F,/ B,/F,/D/F,/ |1 B,2 F,F, :|2 B,2 D/B,/E/B,/ || %91
 F/D/B,/D/ D/E/C/D/ | B,/F,/D,/F,/ A,/F,/B,/F,/ | C/E,/B,/E,/ A,/E,/G,/E,/ | %94
 F,/D,/F,/B,/ D/B,/E/B,/ | F/D/B,/D/ D/E/C/D/ | B,/F,/D,/F,/ A,/F,/B,/F,/ | %97
 C/A,/F,/A,/ C/A,/C/A,/ | F2 F,F, | B,/F,/D,/F,/ A,/F,/B,/F,/ | C/F,/E,/F,/ B,/F,/C/F,/ | %101
 D/F,/D,/F,/ E/F,/D/F,/ | G,/E,/C,/E,/ C/D/C/=B,/ | B,/F,/D,/F,/ B,/F,/B,/F,/ | %104
 A,/F,/E,/F,/ G,/F,/D/C/ | B,/F,/D,/F,/ B,/F,/D/F,/ | B,2 z2 | D2 z2 | B,4- | B,2 z2 |] %110
V:2
 EE | A2 GA | B2 AB | c2 dc | F2 cB | A2 BA | G2 cB | A4- | A2 z2 |: [A,CE]4 | [G,DE]4 | [A,CE]4 | %12
 [B,DF]4 | [A,CE]4 | [G,DE]4 | [A,CE]4- |1 [A,CE]2- z2 :|2 [A,CE]2 z2 || z2 [CEA]2 | z2 [CEA]2 | %20
 z2 [DFA]2 | z2 [CEA]2 | z2 [CEA]2 | z2 [B,=DA]2 | z2 [B,EG]2 | [B,EG]2 z2 | [CEA]4 | [DEG]4 | %28
 [CEA]4 | [DFB]4 | [EAc]4 | [DGB]4 | [CEA]4- | [CEA]2 E2 || A2 GA | B2 AB | c2 dc | F2 cB | A2 BA | %39
 G2 cB | A4- | A2 z2 || [A,CE]4 | [G,DE]4 | [A,CE]4 | [B,DF]4 | [A,CE]4 | [G,DE]4 | [A,CE]4- | %49
 [A,CE]2 z2 | [A,CE]4 | [G,DE]4 | [A,CE]4 | [B,DF]4 | [A,CE]4 | [G,DE]4 | [A,CE]4- | [A,CE]2 z2 | %58
 z2 [CEA]2 | z2 [CEA]2 | z2 [DFA]2 | z2 [CEA]2 | z2 [CEA]2 | z2 [B,=DA]2 | z2 [B,EG]2 | %65
 [B,EG]2 z2 | [CEA]4 | [DEA]4 | [CEA]4 | [DFB]4 | [EAc]4 | [DGB]4 | [CEA]4- | [CEA]2 FF || %74
[K:Bb] B2 AB | c2 Bc | d2 ed | G2 dc | B2 cB | A2 dc | B4- | B2 z2 |: z [B,DF] [B,DF][B,DF] | %83
 z [A,EF] [A,EF][A,EF] | z [B,DF] [B,DF][B,DF] | z [CEG] [CEG][CEG] | z [B,DF] [B,DF][B,DF] | %87
 z [A,EF] [A,EF][A,EF] | z [B,DF] [B,DF][B,DF] |1 [B,DF]2 z z :|2 [B,DF]2 z2 || z [DFB] z [DFB] | %92
 z [DFB] z [DFB] | z [EGB] z [EGB] | z [DFB] [DFB][DFB] | z [DFB] z [DFB] | z [DFB] z [DFB] | %97
 z [EFA] [EFA][EFA] | [EFA]2 z2 | z [B,DF] [B,DF][B,DF] | z [A,EF] [A,EF][A,EF] | %101
 z [CEG] [CEG][CEG] | z [CEG] [CEG][CEG] | z [B,DF] [B,DF][B,DF] | z [A,EF] [A,EF][A,EF] | %105
 z [F,B,D] [F,B,D][B,DF] | !arpeggio![DFB]2 z2 | !arpeggio![FBd]2 z2 | !arpeggio![DFB]4- | %109
 [DFB]2 z z |] %110
V:3
 x x | z [CE] [CE][CE] | z [DE] [DE][DE] | z [CE] [CE][CE] | z [B,D] [DF][DF] | z [CE] [CE][CE] | %6
 z [DE] [DE][DE] | z [CE] [CE][CE] | [CE]2 x2 |: x4 | x4 | x4 | x4 | x4 | x4 | x4 |1 x4 :|2 x4 || %18
 x4 | x4 | x4 | x4 | x4 | x4 | x4 | x4 | x4 | x4 | x4 | x4 | x4 | x4 | x4 | x4 || z [CE] [CE][CE] | %35
 z [DE] [DE][DE] | z [CE] [CE][CE] | z [B,D] [DF][DF] | z [CE] [CE][CE] | z [DE] [DE][DE] | %40
 z [CE] [CE][CE] | [CE]2 x2 || x4 | x4 | x4 | x4 | x4 | x4 | x4 | x4 | x4 | x4 | x4 | x4 | x4 | %55
 x4 | x4 | x4 | x4 | x4 | x4 | x4 | x4 | x4 | x4 | x4 | x4 | x4 | x4 | x4 | x4 | x4 | x4 | x4 || %74
[K:Bb] z [=DF] [DF][DF] | z [EF] [EF][EF] | z [DF] [DF][DF] | z [CE] [EG][EG] | z [DF] [DF][DF] | %79
 z [EF] [EF][EF] | z [DF] [DF][DF] | [DF]2 x2 |: x4 | x4 | x4 | x4 | x4 | x4 | x4 |1 x4 :|2 x4 || %91
 x4 | x4 | x4 | x4 | x4 | x4 | x4 | x4 | x4 | x4 | x4 | x4 | x4 | x4 | x4 | x4 | x4 | x4 | x4 |] %110
V:4
 z2 | A,,4 | E,,4 | A,,4 | D,4 | E,4 | E,,4 | A,,2 E,C, | A,,2 z2 |: A,,4 | E,,4 | A,,4 | D,4 | %13
 E,4 | E,,4 | A,,2 E,C, |1 A,,2 z2 :|2 A,,2 z2 || A,,2 z2 | A,,2 z2 | D,2 z2 | A,,2 z2 | A,,2 z2 | %23
 B,,2 z2 | E,,2 B,,G,, | E,,2 z2 | A,,4 | E,,4 | A,,4 | D,4 | E,4 | E,,4 | A,,2 E,D, | A,,2 z2 || %34
 A,,4 | E,,4 | A,,4 | D,4 | E,4 | E,,4 | A,,2 E,C, | A,,2 z2 || A,,4 | E,,4 | A,,4 | D,4 | E,4 | %47
 E,,4 | A,,2 E,C, | A,,2 z2 | A,,4 | E,,4 | A,,4 | D,4 | E,4 | E,,4 | A,,2 E,C, | A,,2 z2 | %58
 A,,2 z2 | A,,2 z2 | D,2 z2 | A,,2 z2 | A,,2 z2 | B,,2 z2 | E,,2 B,,G,, | E,,2 z2 | A,,4 | E,,4 | %68
 A,,4 | D,4 | E,4 | E,,4 | A,,2 E,D, | A,,2 z2 ||[K:Bb] B,,4 | F,,4 | B,,4 | E,4 | F,4 | F,,4 | %80
 B,,2 F,D, | B,,2 z2 |: B,,2 z2 | F,,2 z2 | B,,2 z2 | [E,,E,]2 z2 | [F,,F,]2 z2 | [F,,F,]2 z2 | %88
 B,,2 F,D, |1 B,,2 z2 :|2 B,,2 D,E, || F,2 D,C, | B,,2 A,,B,, | C,B,, A,,G,, | F,,2 D,E, | %95
 F,2 D,C, | B,,2 A,,B,, | C,A,, G,,A,, | F,,2 z2 | B,,2 z2 | F,,2 z2 | B,,2 z2 | [E,,E,]2 z2 | %103
 [F,,F,]2 z2 | G,,2 z2 | B,,2 z2 | B,,2 z2 | [F,,F,]2 [D,,D,]2 | [B,,,B,,]4- | [B,,,B,,]2 z2 |] %110

